X: 13
T: Gráinne's
C: Tommy Peoples
Z: Michael Eskin
S: https://thesession.org/tunes/488#setting51707
R: jig
M: 6/8
L: 1/8
K: Gmaj
Bc|:dGF GDB,|G,2D DB,D|EcB ABG|FED cBA|
BdB GBG|EGE CEG|DGc BEF|1 AGF GBc:|2 AGF G2A||
|:BAB Ggf|ecA E2E|DFA f2f|ed^c d2=c|
BdB Ggf|ecA E2E|DGc BEF|1 AGF G2 A:|2 AGF G2 D||
|:GBd gfg|ecB c2B|A^ce a2g|fd^c def|
gdB Ggf|ecA E2E|DGc BEF|1 AGF G2D:|2 AGF G3||

%-------------------- TUNE SEPARATOR --------------------%

